public/assets/discord.svg

<svg width="142" height="50" viewBox="0 0 142 50" fill="none" xmlns="http://www.w3.org/2000/svg">
<rect x="0.5" y="0.5" width="141" height="49" rx="6.5" fill="white" stroke="url(#paint0_linear_2329_165)"/>
<rect x="13" y="5" width="40" height="40" rx="8" fill="white"/>
<path d="M41.6563 16.8743C44.4672 21.1359 45.8554 25.943 45.3364 31.477C45.3342 31.5004 45.3224 31.5219 45.3038 31.536C43.1751 33.1478 41.1128 34.126 39.0794 34.7746C39.0635 34.7796 39.0466 34.7793 39.0309 34.7739C39.0152 34.7684 39.0016 34.758 38.9919 34.7442C38.5222 34.0701 38.0953 33.3595 37.7214 32.6133C37.6999 32.5694 37.7195 32.5164 37.7637 32.4991C38.4416 32.2357 39.0862 31.9201 39.7063 31.5463C39.7551 31.5168 39.7582 31.4446 39.7131 31.41C39.5815 31.3092 39.4511 31.2034 39.3264 31.0975C39.3031 31.0779 39.2716 31.0741 39.2452 31.0872C35.2197 33.0041 30.81 33.0041 26.737 31.0872C26.7105 31.075 26.6791 31.0792 26.6564 31.0985C26.532 31.2043 26.4013 31.3092 26.2709 31.41C26.2258 31.4446 26.2296 31.5168 26.2787 31.5463C26.8988 31.913 27.5434 32.2357 28.2204 32.5004C28.2642 32.5177 28.2851 32.5694 28.2633 32.6133C27.8974 33.3605 27.4706 34.0711 26.9921 34.7451C26.9713 34.7724 26.937 34.7849 26.9047 34.7746C24.8809 34.126 22.8185 33.1478 20.6899 31.536C20.6722 31.5219 20.6594 31.4995 20.6576 31.476C20.2239 26.6892 21.1077 21.8424 24.3343 16.8733C24.3421 16.8602 24.3539 16.8499 24.3676 16.8438C25.9552 16.0924 27.656 15.5397 29.4337 15.224C29.466 15.2189 29.4984 15.2343 29.5152 15.2638C29.7348 15.6648 29.9859 16.1791 30.1558 16.5993C32.0296 16.3042 33.9327 16.3042 35.8457 16.5993C36.0155 16.1881 36.2579 15.6648 36.4766 15.2638C36.4844 15.2491 36.4965 15.2374 36.5111 15.2303C36.5258 15.2231 36.5422 15.2209 36.5581 15.224C38.3367 15.5407 40.0376 16.0934 41.6239 16.8438C41.6379 16.8499 41.6494 16.8602 41.6563 16.8743ZM31.1084 25.9757C31.128 24.5606 30.1275 23.3896 28.8715 23.3896C27.6258 23.3896 26.6349 24.5503 26.6349 25.9757C26.6349 27.4008 27.6454 28.5615 28.8715 28.5615C30.1175 28.5615 31.1084 27.4008 31.1084 25.9757ZM39.3783 25.9757C39.3979 24.5606 38.3974 23.3896 37.1418 23.3896C35.8958 23.3896 34.9049 24.5503 34.9049 25.9757C34.9049 27.4008 35.9154 28.5615 37.1418 28.5615C38.3974 28.5615 39.3783 27.4008 39.3783 25.9757Z" fill="#5865F2"/>
<path d="M57.98 30V19.92H61.088C61.1907 19.92 61.3703 19.9223 61.627 19.927C61.8837 19.9317 62.1287 19.9503 62.362 19.983C63.1413 20.0857 63.7923 20.3703 64.315 20.837C64.8423 21.299 65.239 21.887 65.505 22.601C65.771 23.315 65.904 24.1013 65.904 24.96C65.904 25.8187 65.771 26.605 65.505 27.319C65.239 28.033 64.8423 28.6233 64.315 29.09C63.7923 29.552 63.1413 29.8343 62.362 29.937C62.1287 29.965 61.8813 29.9837 61.62 29.993C61.3633 29.9977 61.186 30 61.088 30H57.98ZM59.261 28.81H61.088C61.2653 28.81 61.4637 28.8053 61.683 28.796C61.9023 28.782 62.0937 28.761 62.257 28.733C62.8077 28.6303 63.2533 28.3993 63.594 28.04C63.9347 27.6807 64.1843 27.2327 64.343 26.696C64.5017 26.1593 64.581 25.5807 64.581 24.96C64.581 24.3253 64.4993 23.7397 64.336 23.203C64.1773 22.6663 63.9277 22.2207 63.587 21.866C63.2463 21.5113 62.803 21.285 62.257 21.187C62.0937 21.1543 61.9 21.1333 61.676 21.124C61.452 21.1147 61.256 21.11 61.088 21.11H59.261V28.81ZM67.6493 21.103V19.815H68.8953V21.103H67.6493ZM67.6493 30V22.44H68.8953V30H67.6493ZM73.8516 30.203C72.951 30.203 72.2113 30.007 71.6326 29.615C71.0586 29.2183 70.7063 28.6653 70.5756 27.956L71.8496 27.753C71.9523 28.1637 72.188 28.4903 72.5566 28.733C72.9253 28.971 73.3826 29.09 73.9286 29.09C74.4466 29.09 74.8526 28.9827 75.1466 28.768C75.4406 28.5533 75.5876 28.2617 75.5876 27.893C75.5876 27.6783 75.5386 27.5057 75.4406 27.375C75.3426 27.2397 75.1396 27.1137 74.8316 26.997C74.5283 26.8803 74.0686 26.7403 73.4526 26.577C72.7853 26.3997 72.2603 26.2153 71.8776 26.024C71.495 25.8327 71.222 25.611 71.0586 25.359C70.8953 25.107 70.8136 24.8013 70.8136 24.442C70.8136 23.9987 70.935 23.6113 71.1776 23.28C71.4203 22.944 71.7586 22.685 72.1926 22.503C72.6313 22.321 73.14 22.23 73.7186 22.23C74.2926 22.23 74.806 22.321 75.2586 22.503C75.7113 22.685 76.0753 22.944 76.3506 23.28C76.6306 23.6113 76.7963 23.9987 76.8476 24.442L75.5736 24.673C75.513 24.267 75.317 23.9473 74.9856 23.714C74.659 23.4807 74.2366 23.357 73.7186 23.343C73.2286 23.3243 72.8296 23.4107 72.5216 23.602C72.2183 23.7933 72.0666 24.0523 72.0666 24.379C72.0666 24.561 72.1226 24.7173 72.2346 24.848C72.3513 24.9787 72.5636 25.1023 72.8716 25.219C73.1843 25.3357 73.637 25.4687 74.2296 25.618C74.897 25.786 75.422 25.9703 75.8046 26.171C76.192 26.367 76.4673 26.6003 76.6306 26.871C76.794 27.137 76.8756 27.466 76.8756 27.858C76.8756 28.586 76.6073 29.16 76.0706 29.58C75.534 29.9953 74.7943 30.203 73.8516 30.203ZM81.6045 30.21C80.8391 30.21 80.1881 30.0397 79.6515 29.699C79.1195 29.3537 78.7135 28.88 78.4335 28.278C78.1535 27.676 78.0088 26.99 77.9995 26.22C78.0088 25.4313 78.1558 24.7383 78.4405 24.141C78.7298 23.539 79.1428 23.07 79.6795 22.734C80.2161 22.398 80.8625 22.23 81.6185 22.23C82.4165 22.23 83.1025 22.426 83.6765 22.818C84.2551 23.21 84.6425 23.7467 84.8385 24.428L83.6065 24.799C83.4478 24.3603 83.1888 24.0197 82.8295 23.777C82.4748 23.5343 82.0665 23.413 81.6045 23.413C81.0865 23.413 80.6595 23.5343 80.3235 23.777C79.9875 24.015 79.7378 24.3463 79.5745 24.771C79.4111 25.191 79.3271 25.674 79.3225 26.22C79.3318 27.06 79.5255 27.739 79.9035 28.257C80.2861 28.7703 80.8531 29.027 81.6045 29.027C82.0991 29.027 82.5098 28.915 82.8365 28.691C83.1631 28.4623 83.4105 28.1333 83.5785 27.704L84.8385 28.033C84.5771 28.7377 84.1688 29.2767 83.6135 29.65C83.0581 30.0233 82.3885 30.21 81.6045 30.21ZM89.282 30.21C88.5307 30.21 87.882 30.0397 87.336 29.699C86.7947 29.3583 86.377 28.887 86.083 28.285C85.789 27.683 85.642 26.9923 85.642 26.213C85.642 25.4197 85.7914 24.7243 86.09 24.127C86.3887 23.5297 86.811 23.0653 87.357 22.734C87.903 22.398 88.5447 22.23 89.282 22.23C90.038 22.23 90.689 22.4003 91.235 22.741C91.781 23.077 92.1987 23.546 92.488 24.148C92.782 24.7453 92.929 25.4337 92.929 26.213C92.929 27.0017 92.782 27.697 92.488 28.299C92.194 28.8963 91.774 29.3653 91.228 29.706C90.682 30.042 90.0334 30.21 89.282 30.21ZM89.282 29.027C90.066 29.027 90.6494 28.7657 91.032 28.243C91.4147 27.7203 91.606 27.0437 91.606 26.213C91.606 25.359 91.4124 24.68 91.025 24.176C90.6377 23.6673 90.0567 23.413 89.282 23.413C88.7547 23.413 88.3207 23.532 87.98 23.77C87.6394 24.008 87.385 24.337 87.217 24.757C87.049 25.177 86.965 25.6623 86.965 26.213C86.965 27.0623 87.161 27.7437 87.553 28.257C87.945 28.7703 88.5214 29.027 89.282 29.027ZM94.4702 30V22.44H95.5832V24.267L95.4012 24.029C95.4899 23.7957 95.6042 23.581 95.7442 23.385C95.8889 23.189 96.0499 23.028 96.2272 22.902C96.4232 22.7433 96.6449 22.622 96.8922 22.538C97.1396 22.454 97.3916 22.405 97.6482 22.391C97.9049 22.3723 98.1452 22.3887 98.3692 22.44V23.609C98.1079 23.539 97.8209 23.5203 97.5082 23.553C97.1956 23.5857 96.9062 23.7 96.6402 23.896C96.3976 24.0687 96.2086 24.2787 96.0732 24.526C95.9426 24.7733 95.8516 25.0417 95.8002 25.331C95.7489 25.6157 95.7232 25.9073 95.7232 26.206V30H94.4702ZM102.524 30.21C101.82 30.21 101.215 30.035 100.711 29.685C100.207 29.3303 99.8175 28.852 99.5422 28.25C99.2715 27.648 99.1362 26.969 99.1362 26.213C99.1362 25.457 99.2715 24.778 99.5422 24.176C99.8175 23.574 100.207 23.1003 100.711 22.755C101.215 22.405 101.817 22.23 102.517 22.23C103.231 22.23 103.831 22.4027 104.316 22.748C104.802 23.0933 105.168 23.567 105.415 24.169C105.667 24.771 105.793 25.4523 105.793 26.213C105.793 26.9643 105.667 27.6433 105.415 28.25C105.168 28.852 104.802 29.3303 104.316 29.685C103.831 30.035 103.234 30.21 102.524 30.21ZM102.678 29.069C103.187 29.069 103.605 28.9477 103.931 28.705C104.258 28.4577 104.498 28.1193 104.652 27.69C104.811 27.256 104.89 26.7637 104.89 26.213C104.89 25.653 104.811 25.1607 104.652 24.736C104.498 24.3067 104.26 23.973 103.938 23.735C103.616 23.4923 103.208 23.371 102.713 23.371C102.2 23.371 101.775 23.497 101.439 23.749C101.108 24.001 100.861 24.3417 100.697 24.771C100.539 25.2003 100.459 25.681 100.459 26.213C100.459 26.7497 100.541 27.235 100.704 27.669C100.868 28.0983 101.113 28.439 101.439 28.691C101.771 28.943 102.184 29.069 102.678 29.069ZM104.89 30V24.435H104.75V19.92H106.003V30H104.89Z" fill="#475367"/>
<defs>
<linearGradient id="paint0_linear_2329_165" x1="71" y1="1" x2="71" y2="49" gradientUnits="userSpaceOnUse">
<stop stop-color="#E4E7EC"/>
<stop offset="1" stop-color="white"/>
</linearGradient>
</defs>
</svg>

<svg xmlns="http://www.w3.org/2000/svg" width="142" height="50" fill="none" xmlns:v="https://vecta.io/nano"><g fill="#fff"><rect x=".5" y=".5" width="141" height="49" rx="6.5" stroke="url(#A)"/><rect x="13" y="5" width="40" height="40" rx="8"/></g><path d="M41.656 16.874c2.811 4.262 4.199 9.069 3.68 14.603-.002.023-.014.045-.033.059-2.129 1.612-4.191 2.59-6.224 3.239-.016.005-.033.005-.048-.001a.08.08 0 0 1-.039-.03c-.47-.674-.897-1.385-1.27-2.131-.022-.044-.002-.097.042-.114a12.55 12.55 0 0 0 1.943-.953c.049-.029.052-.102.007-.136-.132-.101-.262-.207-.387-.312-.023-.02-.055-.023-.081-.01-4.025 1.917-8.435 1.917-12.508 0-.026-.012-.058-.008-.081.011a10.69 10.69 0 0 1-.386.311c-.045.035-.041.107.008.136.62.367 1.265.689 1.942.954.044.017.065.069.043.113-.366.747-.793 1.458-1.271 2.132-.021.027-.055.04-.087.029a20.4 20.4 0 0 1-6.215-3.239c-.018-.014-.03-.037-.032-.06-.434-4.787.45-9.634 3.677-14.603.008-.013.02-.023.033-.029a20.03 20.03 0 0 1 5.066-1.62c.032-.005.065.01.081.04a13.78 13.78 0 0 1 .641 1.335c1.874-.295 3.777-.295 5.69 0a14.98 14.98 0 0 1 .631-1.335c.008-.015.02-.026.035-.034s.031-.009.047-.006c1.779.317 3.479.869 5.066 1.62.014.006.026.016.032.03zm-10.548 9.101c.02-1.415-.981-2.586-2.237-2.586-1.246 0-2.237 1.161-2.237 2.586s1.011 2.586 2.237 2.586c1.246 0 2.237-1.161 2.237-2.586zm8.27 0c.02-1.415-.981-2.586-2.236-2.586-1.246 0-2.237 1.161-2.237 2.586s1.011 2.586 2.237 2.586c1.256 0 2.236-1.161 2.236-2.586z" fill="#5865f2"/><path d="M57.98 30V19.92h3.108l.539.007a6.1 6.1 0 0 1 .735.056c.779.103 1.43.387 1.953.854s.924 1.05 1.19 1.764.399 1.5.399 2.359-.133 1.645-.399 2.359-.663 1.304-1.19 1.771-1.174.744-1.953.847l-.742.056-.532.007H57.98zm1.281-1.19h1.827l.595-.014.574-.063c.551-.103.996-.334 1.337-.693s.59-.807.749-1.344.238-1.115.238-1.736c0-.635-.082-1.22-.245-1.757s-.408-.982-.749-1.337-.784-.581-1.33-.679c-.163-.033-.357-.054-.581-.063l-.588-.014h-1.827v7.7zm8.388-7.707v-1.288h1.246v1.288h-1.246zm0 8.897v-7.56h1.246V30h-1.246zm6.202.203c-.901 0-1.64-.196-2.219-.588a2.48 2.48 0 0 1-1.057-1.659l1.274-.203c.103.411.338.737.707.98s.826.357 1.372.357c.518 0 .924-.107 1.218-.322s.441-.506.441-.875c0-.215-.049-.387-.147-.518s-.301-.261-.609-.378-.763-.257-1.379-.42c-.667-.177-1.192-.362-1.575-.553s-.656-.413-.819-.665-.245-.558-.245-.917c0-.443.121-.831.364-1.162s.581-.595 1.015-.777.947-.273 1.526-.273 1.087.091 1.54.273.817.441 1.092.777a2.14 2.14 0 0 1 .497 1.162l-1.274.231c-.061-.406-.257-.726-.588-.959s-.749-.357-1.267-.371c-.49-.019-.889.068-1.197.259s-.455.45-.455.777c0 .182.056.338.168.469s.329.254.637.371.765.25 1.358.399c.667.168 1.192.352 1.575.553s.663.429.826.7.245.595.245.987c0 .728-.268 1.302-.805 1.722s-1.276.623-2.219.623zm7.753.007c-.765 0-1.416-.17-1.953-.511s-.938-.819-1.218-1.421-.425-1.288-.434-2.058c.009-.789.156-1.482.441-2.079s.702-1.071 1.239-1.407 1.183-.504 1.939-.504c.798 0 1.484.196 2.058.588a2.83 2.83 0 0 1 1.162 1.61l-1.232.371c-.159-.439-.418-.779-.777-1.022s-.763-.364-1.225-.364c-.518 0-.945.121-1.281.364s-.586.569-.749.994-.247.903-.252 1.449c.009.84.203 1.519.581 2.037s.95.77 1.701.77c.495 0 .905-.112 1.232-.336s.574-.558.742-.987l1.26.329c-.261.705-.67 1.244-1.225 1.617s-1.225.56-2.009.56zm7.677 0c-.751 0-1.4-.17-1.946-.511s-.959-.812-1.253-1.414-.441-1.293-.441-2.072c0-.793.149-1.489.448-2.086s.721-1.062 1.267-1.393 1.188-.504 1.925-.504c.756 0 1.407.17 1.953.511s.964.805 1.253 1.407.441 1.286.441 2.065c0 .789-.147 1.484-.441 2.086a3.38 3.38 0 0 1-1.26 1.407c-.546.336-1.195.504-1.946.504zm0-1.183c.784 0 1.367-.261 1.75-.784s.574-1.199.574-2.03c0-.854-.194-1.533-.581-2.037s-.968-.763-1.743-.763c-.527 0-.961.119-1.302.357s-.595.567-.763.987-.252.905-.252 1.456c0 .849.196 1.531.588 2.044s.968.77 1.729.77zM94.47 30v-7.56h1.113v1.827l-.182-.238c.089-.233.203-.448.343-.644s.306-.357.483-.483a2.14 2.14 0 0 1 .665-.364 2.82 2.82 0 0 1 .756-.147c.257-.019.497-.002.721.049v1.169a2.36 2.36 0 0 0-.861-.056 1.75 1.75 0 0 0-.868.343 1.87 1.87 0 0 0-.567.63 2.74 2.74 0 0 0-.273.805c-.051.285-.077.576-.077.875V30H94.47zm8.054.21c-.704 0-1.309-.175-1.813-.525s-.894-.833-1.169-1.435-.406-1.281-.406-2.037.135-1.435.406-2.037.665-1.076 1.169-1.421 1.106-.525 1.806-.525c.714 0 1.314.173 1.799.518s.852.819 1.099 1.421.378 1.283.378 2.044c0 .751-.126 1.43-.378 2.037s-.613 1.08-1.099 1.435-1.082.525-1.792.525zm.154-1.141c.509 0 .927-.121 1.253-.364s.567-.586.721-1.015c.159-.434.238-.926.238-1.477 0-.56-.079-1.052-.238-1.477-.154-.429-.392-.763-.714-1.001s-.73-.364-1.225-.364c-.513 0-.938.126-1.274.378-.331.252-.578.593-.742 1.022-.158.429-.238.91-.238 1.442s.082 1.022.245 1.456.409.77.735 1.022c.332.252.745.378 1.239.378zm2.212.931v-5.565h-.14V19.92h1.253V30h-1.113z" fill="#475367"/><defs><linearGradient id="A" x1="71" y1="1" x2="71" y2="49" gradientUnits="userSpaceOnUse"><stop stop-color="#e4e7ec"/><stop offset="1" stop-color="#fff"/></linearGradient></defs></svg>
